build/img/sprite/icon-restaurant.svg

<svg width="34" height="37" viewBox="0 0 34 37" fill="none" xmlns="http://www.w3.org/2000/svg">
<path d="M4.35581 25.9749C4.46734 23.5205 4.5835 21.0652 4.68759 18.6108C4.73313 17.5216 4.3428 16.5839 3.58818 15.8125C1.87911 14.0654 1.08452 11.9362 1.02876 9.53574C0.974861 7.21796 1.01203 4.89924 1.01854 2.58053C1.02133 1.66699 1.65979 1.00715 2.51757 1.00343C3.38465 0.999716 4.02961 1.67349 4.03147 2.60191C4.03519 4.64182 4.0324 6.68266 4.03333 8.7235C4.03333 8.85082 4.02404 8.98278 4.05285 9.1036C4.12534 9.40006 4.31957 9.56176 4.63276 9.5376C4.93015 9.5153 5.08907 9.33315 5.13089 9.04784C5.14576 8.94561 5.13739 8.83966 5.13739 8.73558C5.13739 6.62597 5.13368 4.51543 5.14018 2.40581C5.14204 1.69765 5.61601 1.13912 6.2777 1.02945C6.94776 0.918863 7.58343 1.2683 7.80182 1.89932C7.87524 2.11307 7.90126 2.35284 7.90219 2.58053C7.90963 4.63252 7.90684 6.68451 7.90684 8.73651C7.90684 8.85267 7.8994 8.9707 7.91799 9.08315C7.9626 9.35638 8.12895 9.51809 8.40776 9.5376C8.7005 9.55805 8.90217 9.42143 8.9728 9.13427C9.00532 9.00137 9.00439 8.85825 9.00439 8.72071C9.00625 6.6808 8.99882 4.63996 9.00904 2.60005C9.01369 1.5471 9.81478 0.861244 10.8027 1.03503C11.5257 1.16235 12.0257 1.78594 12.0266 2.58425C12.0303 4.78679 12.0173 6.98934 12.0322 9.19189C12.0424 10.6668 11.7199 12.0626 11.1214 13.4009C10.7302 14.2763 10.207 15.0616 9.5239 15.741C8.67169 16.5885 8.29345 17.6108 8.35107 18.8208C8.56946 23.3941 8.7702 27.9684 8.9728 32.5426C8.99231 32.9924 9.03599 33.4515 8.9728 33.8929C8.78972 35.1801 7.63547 36.0862 6.36599 35.9905C5.03331 35.8892 4.00266 34.8399 4.03426 33.5156C4.07794 31.6616 4.18574 29.8094 4.26753 27.9572C4.29634 27.2974 4.32793 26.6375 4.3586 25.9768H4.35674L4.35581 25.9749ZM5.45337 25.8086C5.45337 25.8086 5.45058 25.8086 5.44965 25.8086C5.36973 27.592 5.28888 29.3754 5.20895 31.1588C5.1755 31.9116 5.13739 32.6643 5.11416 33.4171C5.09557 34.0305 5.35672 34.4998 5.91154 34.7693C6.45427 35.0332 6.97656 34.9505 7.43845 34.5695C7.83621 34.2405 7.95052 33.7972 7.92821 33.2916C7.70796 28.4507 7.49979 23.6097 7.27581 18.7697C7.2089 17.332 7.65592 16.0783 8.66611 15.0784C10.1177 13.6416 10.7962 11.8647 10.8854 9.89912C10.996 7.46888 10.9328 5.03121 10.943 2.59726C10.943 2.55079 10.9532 2.4876 10.9281 2.46157C10.8027 2.33147 10.6846 2.14095 10.5313 2.10285C10.3036 2.04616 10.1447 2.22366 10.0964 2.45414C10.0731 2.56566 10.0843 2.68462 10.0843 2.80079C10.0843 4.86486 10.0917 6.928 10.0806 8.99208C10.0741 10.1166 9.03413 10.8824 7.97654 10.5645C7.27396 10.3536 6.81672 9.71975 6.81486 8.92981C6.81021 6.80812 6.813 4.68642 6.81486 2.56473C6.81486 2.34819 6.82229 2.10564 6.53513 2.09727C6.21915 2.08891 6.2303 2.34912 6.23123 2.57495C6.23123 3.20133 6.23123 3.82678 6.23123 4.45316C6.23123 5.93732 6.23774 7.42148 6.22844 8.90565C6.22194 9.87309 5.57047 10.5887 4.68109 10.6352C3.71178 10.6863 2.96552 9.95023 2.9618 8.91215C2.95436 6.88339 2.95994 4.85464 2.95808 2.82495C2.95808 2.69763 2.99247 2.53964 2.93113 2.45042C2.83169 2.30544 2.66627 2.11307 2.52872 2.11214C2.38839 2.11214 2.22483 2.30173 2.11702 2.44299C2.05941 2.51826 2.09286 2.66696 2.09193 2.7822C2.091 4.61394 2.07985 6.44567 2.09658 8.27741C2.10308 8.95862 2.1384 9.64448 2.22204 10.3201C2.45066 12.1565 3.07611 13.8024 4.4376 15.1453C5.38274 16.0774 5.82418 17.2716 5.76935 18.6154C5.67084 21.0131 5.56024 23.4099 5.4543 25.8076L5.45337 25.8086Z" fill="#9D15A0" stroke="#9D15A0" stroke-width="0.2"/>
<path d="M25.3846 25.9228C25.4915 23.5957 25.5816 21.2686 25.7127 18.9425C25.7787 17.7678 25.5036 16.7111 24.6709 15.8831C23.3103 14.5309 22.5408 12.898 22.2193 11.0384C21.8178 8.71784 22.0436 6.46789 23.0817 4.3304C23.5482 3.36946 24.1746 2.5284 25.0389 1.88437C26.6783 0.662282 28.6448 0.707819 30.2237 2.01448C31.5545 3.11575 32.3054 4.57668 32.7013 6.22069C33.3723 9.00315 33.153 11.6982 31.719 14.2214C31.4254 14.7381 31.0341 15.2149 30.6205 15.6461C29.7367 16.568 29.3167 17.6191 29.3854 18.9127C29.5629 22.2454 29.6912 25.5808 29.839 28.9153C29.9068 30.4431 29.996 31.971 30.036 33.4997C30.0648 34.6149 29.3185 35.5796 28.2647 35.8909C26.5853 36.3863 24.9701 35.0963 25.051 33.3204C25.1541 31.063 25.2619 28.8056 25.3651 26.5482C25.3744 26.3401 25.366 26.131 25.366 25.9228C25.3725 25.9228 25.379 25.9228 25.3855 25.9228H25.3846ZM26.4822 25.7899C26.4822 25.7899 26.4794 25.7899 26.4775 25.7899C26.3651 28.3363 26.2452 30.8827 26.1448 33.43C26.1114 34.2757 26.7433 34.9179 27.5518 34.9142C28.3613 34.9105 28.9821 34.2646 28.9524 33.4207C28.9003 31.9505 28.8297 30.4803 28.7637 29.0101C28.6104 25.5836 28.4552 22.1571 28.2981 18.7315C28.2303 17.2409 28.7674 15.9909 29.8083 14.9463C30.3798 14.3729 30.8371 13.7233 31.1586 12.9826C32.0722 10.8767 32.1976 8.70483 31.6605 6.48834C31.3352 5.14823 30.7664 3.93079 29.7237 2.98564C28.4366 1.81932 26.8223 1.76448 25.5064 2.89085C25.0649 3.26816 24.6746 3.73748 24.3642 4.2291C23.5166 5.57479 23.1663 7.08126 23.1356 8.65929C23.0873 11.1202 23.6635 13.3478 25.4775 15.161C26.4441 16.1275 26.8586 17.3579 26.7935 18.7408C26.6829 21.0902 26.5853 23.4405 26.4822 25.7908V25.7899Z" fill="#9D15A0" stroke="#9D15A0" stroke-width="0.2"/>
<path d="M19.6936 17.8804C19.6936 23.1201 19.6946 28.3597 19.6927 33.5993C19.6927 34.6932 19.0756 35.5686 18.1026 35.8837C16.5822 36.3753 15.0441 35.2508 15.0683 33.643C15.0841 32.5771 15.1389 31.512 15.1882 30.4461C15.2681 28.6859 15.3545 26.9267 15.4475 25.1674C15.4586 24.9537 15.4019 24.8347 15.2049 24.7334C14.8034 24.528 14.3927 24.3254 14.033 24.0587C12.8295 23.1647 12.3407 21.9426 12.5228 20.4668C12.9438 17.0635 13.4745 13.6779 14.3304 10.3527C14.9057 8.11766 15.5999 5.92348 16.7485 3.90215C17.2615 3.00069 17.8628 2.16799 18.6732 1.50258C18.8944 1.32136 19.1193 1.19776 19.4 1.33344C19.6723 1.46541 19.6946 1.71819 19.6946 1.98584C19.6927 7.28311 19.6927 12.5813 19.6927 17.8786L19.6936 17.8804ZM18.6202 3.20607C18.571 3.1847 18.5208 3.16332 18.4715 3.14195C18.0385 3.90122 17.5608 4.63912 17.1816 5.42442C16.1947 7.46805 15.5971 9.6455 15.0859 11.8462C14.4112 14.7485 13.9549 17.688 13.5971 20.6443C13.4587 21.7902 13.8852 22.687 14.8583 23.3059C15.2384 23.5476 15.6389 23.7622 16.0469 23.9546C16.4326 24.1368 16.5859 24.3933 16.559 24.8301C16.4558 26.4954 16.3805 28.1627 16.3025 29.8299C16.243 31.092 16.1826 32.354 16.1445 33.617C16.1175 34.5213 16.9679 35.1374 17.7996 34.84C18.3433 34.6458 18.6221 34.1765 18.6221 33.4525C18.6221 23.4834 18.6221 13.5134 18.6221 3.54435C18.6221 3.4319 18.6221 3.31945 18.6221 3.207L18.6202 3.20607Z" fill="#9D15A0" stroke="#9D15A0" stroke-width="0.2"/>
</svg>

<svg width="34" height="37" fill="none" xmlns="http://www.w3.org/2000/svg"><path d="M4.356 25.975c.111-2.455.228-4.91.332-7.364.045-1.09-.345-2.027-1.1-2.799-1.709-1.747-2.503-3.876-2.56-6.276-.053-2.318-.016-4.637-.01-6.955.003-.914.642-1.574 1.5-1.578.867-.003 1.512.67 1.513 1.599.004 2.04.001 4.08.002 6.121 0 .128-.009.26.02.38.072.297.267.459.58.435.297-.023.456-.205.498-.49.015-.102.006-.208.006-.312 0-2.11-.003-4.22.003-6.33.002-.708.476-1.267 1.138-1.377.67-.11 1.305.24 1.524.87.073.214.1.454.1.682.008 2.052.005 4.104.005 6.156 0 .116-.008.234.011.346.045.273.21.435.49.455.293.02.494-.117.565-.404.032-.133.031-.276.031-.413C9.006 6.68 9 4.64 9.01 2.6c.005-1.053.806-1.739 1.794-1.565.723.127 1.223.75 1.224 1.55.003 2.202-.01 4.404.005 6.607.01 1.475-.312 2.87-.91 4.209a7.677 7.677 0 0 1-1.598 2.34c-.852.848-1.23 1.87-1.173 3.08.218 4.573.42 9.147.622 13.722.02.45.063.909 0 1.35a2.452 2.452 0 0 1-2.607 2.097c-1.333-.1-2.363-1.15-2.332-2.474.044-1.854.152-3.707.234-5.559.028-.66.06-1.32.09-1.98h-.001l-.001-.002Zm1.097-.166H5.45l-.241 5.35c-.033.753-.072 1.505-.095 2.258-.018.614.243 1.083.798 1.352.542.264 1.065.181 1.526-.2.398-.329.513-.772.49-1.277-.22-4.841-.428-9.682-.652-14.522-.067-1.438.38-2.692 1.39-3.692 1.452-1.436 2.13-3.213 2.22-5.179.11-2.43.047-4.868.057-7.302 0-.046.01-.11-.015-.135-.125-.13-.243-.321-.397-.36-.227-.056-.386.122-.435.352-.023.112-.012.23-.012.347 0 2.064.008 4.127-.003 6.191-.007 1.125-1.047 1.89-2.104 1.572-.703-.21-1.16-.844-1.162-1.634-.005-2.122-.002-4.244 0-6.365 0-.217.007-.46-.28-.468-.316-.008-.305.252-.304.478v1.878c0 1.484.007 2.968-.003 4.453-.006.967-.658 1.683-1.547 1.73-.97.05-1.715-.686-1.72-1.724-.007-2.029-.001-4.057-.003-6.087 0-.127.034-.285-.027-.375-.1-.145-.265-.337-.402-.338-.14 0-.304.19-.412.331-.058.075-.024.224-.025.34-.001 1.83-.012 3.663.005 5.494.006.682.041 1.367.125 2.043.229 1.836.854 3.482 2.216 4.825.945.932 1.386 2.127 1.331 3.47-.098 2.398-.209 4.795-.315 7.193ZM25.385 25.923c.106-2.327.197-4.654.328-6.98.066-1.175-.21-2.232-1.042-3.06-1.36-1.352-2.13-2.985-2.452-4.845-.401-2.32-.175-4.57.863-6.708.466-.96 1.093-1.802 1.957-2.446 1.64-1.222 3.606-1.176 5.185.13 1.33 1.102 2.081 2.563 2.477 4.207.671 2.782.452 5.477-.982 8-.294.517-.685.994-1.099 1.425-.883.922-1.303 1.973-1.235 3.267.178 3.332.306 6.668.454 10.002.068 1.528.157 3.056.197 4.585.029 1.115-.718 2.08-1.771 2.39-1.68.496-3.295-.794-3.214-2.57.103-2.257.21-4.514.314-6.772.01-.208.001-.417.001-.625h.02-.001Zm1.097-.133h-.005c-.112 2.546-.232 5.093-.332 7.64-.034.846.598 1.488 1.407 1.484.81-.004 1.43-.65 1.4-1.493-.052-1.47-.122-2.94-.188-4.41-.154-3.427-.309-6.854-.466-10.28-.068-1.49.47-2.74 1.51-3.785a6.35 6.35 0 0 0 1.35-1.963c.914-2.106 1.04-4.278.502-6.495-.325-1.34-.894-2.557-1.936-3.502-1.287-1.167-2.902-1.222-4.218-.095a5.965 5.965 0 0 0-1.142 1.338c-.847 1.346-1.198 2.852-1.228 4.43-.049 2.461.527 4.689 2.341 6.502.967.967 1.382 2.197 1.317 3.58-.111 2.35-.209 4.7-.312 7.05v-.001ZM19.694 17.88l-.001 15.72c0 1.093-.617 1.969-1.59 2.284a2.308 2.308 0 0 1-3.035-2.241c.016-1.066.07-2.131.12-3.197.08-1.76.166-3.52.26-5.279.01-.213-.046-.332-.243-.434-.402-.205-.812-.408-1.172-.674-1.204-.894-1.692-2.116-1.51-3.592.42-3.403.952-6.79 1.807-10.114.576-2.235 1.27-4.43 2.418-6.45.514-.902 1.115-1.735 1.925-2.4.221-.182.446-.305.727-.17.272.132.295.385.295.653-.002 5.297-.002 10.595-.002 15.893v.001ZM18.62 3.206l-.149-.064c-.433.76-.91 1.497-1.29 2.282-.986 2.044-1.584 4.221-2.095 6.422-.675 2.902-1.131 5.842-1.489 8.798-.138 1.146.288 2.043 1.261 2.662.38.242.78.456 1.189.649.386.182.539.438.512.875-.103 1.665-.178 3.333-.257 5-.059 1.262-.12 2.524-.157 3.787-.027.904.823 1.52 1.655 1.223.543-.194.822-.664.822-1.388V3.207h-.002Z" fill="#9D15A0" stroke="#9D15A0" stroke-width=".2"/></svg>
